assets/capabilities/count_down.svg

<?xml version="1.0" standalone="no"?>
<!DOCTYPE svg PUBLIC "-//W3C//DTD SVG 1.0//EN" "http://www.w3.org/TR/2001/REC-SVG-20010904/DTD/svg10.dtd">
<svg xmlns="http://www.w3.org/2000/svg" xmlns:xlink="http://www.w3.org/1999/xlink" id="body_1" width="112" height="112">

<g transform="matrix(0.24095815 0 0 0.24095815 0 0)">
	<g>
		<g>
			<g>
                <path d="M416.637 90.805C 378.813 41.591 324.096 10.055 262.547 2.001999C 201.60599 -5.970001 141.203 10.041999 92.244995 47.076L92.244995 47.076L74.543 29.349C 69.492 24.292 64.831 25.983002 64.185 33.094L64.185 33.094L58.373997 96.552C 57.723995 103.663 63.012997 108.963005 70.13 108.321L70.13 108.321L133.59 102.587C 140.707 101.947 142.401 97.282 137.347 92.225L137.347 92.225L118.983 73.838C 159.296 44.950996 208.27899 32.589996 257.694 39.054996C 309.347 45.811996 355.267 72.27899 387.00702 113.578995C 418.74503 154.87599 432.49802 206.05798 425.74103 257.701C 420.93903 294.378 406.20203 328.16998 383.27002 356.05298C 373.91302 367.42398 363.19302 377.81497 351.21902 387.01398C 309.92303 418.75397 258.74002 432.50998 207.09102 425.75198C 155.44801 418.995 109.53202 392.52798 77.79002 351.23297C 46.869026 311.00397 32.958023 261.089 38.614025 210.68297C 39.765026 200.42596 32.384026 191.17497 22.124025 190.02797C 11.871025 188.87297 2.6260262 196.25797 1.4800262 206.51497C -5.2699738 266.58197 11.312026 326.06696 48.157024 374.00598C 85.981026 423.219 140.70302 454.758 202.24503 462.81C 263.78503 470.859 324.77502 454.461 373.99603 416.638C 388.25104 405.687 401.03302 393.302 412.18304 379.746C 439.51904 346.526 457.07803 306.267 462.80005 262.555C 470.851 201.01 454.458 140.016 416.637 90.805z" stroke="none" fill="#000000" fill-rule="nonzero" />
                <path d="M223.275 81.15C 214.92099 81.15 208.148 87.922005 208.148 96.275L208.148 96.275L208.148 247.026L346.013 318.288C 348.236 319.44 350.611 319.987 352.946 319.983C 358.427 319.983 363.712 317.001 366.40002 311.798C 370.24002 304.375 367.33304 295.249 359.911 291.407L359.911 291.407L238.41101 228.59502L238.41101 96.276C 238.41 87.923 231.636 81.15 223.275 81.15z" stroke="none" fill="#000000" fill-rule="nonzero" />
			</g>
		</g>
	</g>
</g>
</svg>

<?xml version="1.0" encoding="iso-8859-1"?>
<!-- Generator: Adobe Illustrator 16.0.0, SVG Export Plug-In . SVG Version: 6.00 Build 0)  -->
<!DOCTYPE svg PUBLIC "-//W3C//DTD SVG 1.1//EN" "http://www.w3.org/Graphics/SVG/1.1/DTD/svg11.dtd">
<svg version="1.1" id="Capa_1" xmlns="http://www.w3.org/2000/svg" xmlns:xlink="http://www.w3.org/1999/xlink" x="0px" y="0px"
	 width="464.811px" height="464.811px" viewBox="0 0 464.811 464.811" style="enable-background:new 0 0 464.811 464.811;"
	 xml:space="preserve">
<g>
	<g id="Layer_2_15_">
		<g>
			<path d="M416.637,90.805c-37.824-49.214-92.541-80.75-154.09-88.803c-60.941-7.972-121.344,8.04-170.302,45.074L74.543,29.349
				c-5.051-5.057-9.712-3.366-10.358,3.745l-5.811,63.458c-0.65,7.111,4.639,12.411,11.756,11.769l63.46-5.734
				c7.117-0.64,8.811-5.305,3.757-10.362l-18.364-18.387c40.313-28.887,89.296-41.248,138.711-34.783
				c51.653,6.757,97.573,33.224,129.313,74.524c31.738,41.297,45.491,92.479,38.734,144.122
				c-4.802,36.677-19.539,70.469-42.471,98.352c-9.357,11.371-20.077,21.762-32.051,30.961
				c-41.296,31.74-92.479,45.496-144.128,38.738c-51.643-6.757-97.559-33.224-129.301-74.519
				c-30.921-40.229-44.832-90.144-39.176-140.55c1.151-10.257-6.23-19.508-16.49-20.655c-10.253-1.155-19.498,6.23-20.644,16.487
				c-6.75,60.067,9.832,119.552,46.677,167.491c37.824,49.213,92.546,80.752,154.088,88.804
				c61.54,8.049,122.53-8.349,171.751-46.172c14.255-10.951,27.037-23.336,38.187-36.892c27.336-33.22,44.895-73.479,50.617-117.191
				C470.851,201.01,454.458,140.016,416.637,90.805z"/>
			<path d="M223.275,81.15c-8.354,0-15.127,6.772-15.127,15.125v150.751l137.865,71.262c2.223,1.152,4.598,1.699,6.933,1.695
				c5.481,0,10.766-2.982,13.454-8.185c3.84-7.423,0.933-16.549-6.489-20.391l-121.5-62.812V96.276
				C238.41,87.923,231.636,81.15,223.275,81.15z"/>
		</g>
	</g>
</g>
<g>
</g>
<g>
</g>
<g>
</g>
<g>
</g>
<g>
</g>
<g>
</g>
<g>
</g>
<g>
</g>
<g>
</g>
<g>
</g>
<g>
</g>
<g>
</g>
<g>
</g>
<g>
</g>
<g>
</g>
</svg>
